X: 686
T: Jiujiu niao
%%abc-version 2.0
%%abcx-abcm2ps-target-version 5.9.1 (29 Sep 2008)
%%abc-creator hum2abc beta
%%abcx-conversion-date 2013/10/02 07:52:30
%%abc-edited-by Helmut Schaffrath
%%humdrum-veritas 1902694849
%%humdrum-veritas-data 3287049078
%%continueall 1
%%barnumbers 0
L: 1/8
M: 2/4
K: A
e eB2 [I:setbarnb 1]| 
df2f | 
e2d e | 
B> FE2 | 
B B/ c/ e e | 
f zB2 | 
F E/ F/ G F | 
E4 |]  



